(Created with emc2b post processor 2017/01/13 11:13)
(bk- Backside facing roughing)
(Part was mirrored front-to-back prior to generating this code.)
(The facing and pocket run the full x-length of the part and extend well beyond it.)
(This means we don't have to align X=0 perfectly.  However, Y and Z do need accurate touch-off.)
(tool change to 14.2875 mm End Mill)
T6 M06 G43
G17 G90 G21
G00 Z55 S1900 M03
X-11.927 Y-75.765
Z54.6
G01 Z50.11 F300
X135.558 Y-75.765 F800
X135.558 Y-62.765 
X-11.927 Y-62.765 
X-11.927 Y-49.765 
X135.558 Y-49.765 
X135.558 Y-36.765 
X-11.927 Y-36.765 
X-11.927 Y-23.765 
X135.558 Y-23.765 
X135.558 Y-10.765 
X-11.927 Y-10.765 
X-11.927 Y2.234 
X135.558 Y2.234 
X135.558 Y10.794 
X-11.927 Y10.794 
X-11.927 Y2.234 
X135.558 Y2.234 
X135.558 Y10.794 
G00 Z55
X-11.927 Y-75.765
Z54.11
G01 Z49.62 F300
X135.558 Y-75.765 F800
X135.558 Y-62.765 
X-11.927 Y-62.765 
X-11.927 Y-49.765 
X135.558 Y-49.765 
X135.558 Y-36.765 
X-11.927 Y-36.765 
X-11.927 Y-23.765 
X135.558 Y-23.765 
X135.558 Y-10.765 
X-11.927 Y-10.765 
X-11.927 Y2.234 
X135.558 Y2.234 
X135.558 Y10.794 
X-11.927 Y10.794 
X-11.927 Y2.234 
X135.558 Y2.234 
X135.558 Y10.794 
G00 Z55
X-11.927 Y-75.765
Z53.62
G01 Z49.13 F300
X135.558 Y-75.765 F800
X135.558 Y-62.765 
X-11.927 Y-62.765 
X-11.927 Y-49.765 
X135.558 Y-49.765 
X135.558 Y-36.765 
X-11.927 Y-36.765 
X-11.927 Y-23.765 
X135.558 Y-23.765 
X135.558 Y-10.765 
X-11.927 Y-10.765 
X-11.927 Y2.234 
X135.558 Y2.234 
X135.558 Y10.794 
X-11.927 Y10.794 
X-11.927 Y2.234 
X135.558 Y2.234 
X135.558 Y10.794 
G00 Z55
X-11.927 Y-75.765
Z53.13
G01 Z48.64 F300
X135.558 Y-75.765 F800
X135.558 Y-62.765 
X-11.927 Y-62.765 
X-11.927 Y-49.765 
X135.558 Y-49.765 
X135.558 Y-36.765 
X-11.927 Y-36.765 
X-11.927 Y-23.765 
X135.558 Y-23.765 
X135.558 Y-10.765 
X-11.927 Y-10.765 
X-11.927 Y2.234 
X135.558 Y2.234 
X135.558 Y10.794 
X-11.927 Y10.794 
X-11.927 Y2.234 
X135.558 Y2.234 
X135.558 Y10.794 
G00 Z55
X-11.927 Y-75.765
Z52.64
G01 Z48.15 F300
X135.558 Y-75.765 F800
X135.558 Y-62.765 
X-11.927 Y-62.765 
X-11.927 Y-49.765 
X135.558 Y-49.765 
X135.558 Y-36.765 
X-11.927 Y-36.765 
X-11.927 Y-23.765 
X135.558 Y-23.765 
X135.558 Y-10.765 
X-11.927 Y-10.765 
X-11.927 Y2.234 
X135.558 Y2.234 
X135.558 Y10.794 
X-11.927 Y10.794 
X-11.927 Y2.234 
X135.558 Y2.234 
X135.558 Y10.794 
G00 Z55
X-11.927 Y-75.765
Z52.15
G01 Z47.66 F300
X135.558 Y-75.765 F800
X135.558 Y-62.765 
X-11.927 Y-62.765 
X-11.927 Y-49.765 
X135.558 Y-49.765 
X135.558 Y-36.765 
X-11.927 Y-36.765 
X-11.927 Y-23.765 
X135.558 Y-23.765 
X135.558 Y-10.765 
X-11.927 Y-10.765 
X-11.927 Y2.234 
X135.558 Y2.234 
X135.558 Y10.794 
X-11.927 Y10.794 
X-11.927 Y2.234 
X135.558 Y2.234 
X135.558 Y10.794 
G00 Z55
X-11.927 Y-75.765
Z51.66
G01 Z47.17 F300
X135.558 Y-75.765 F800
X135.558 Y-62.765 
X-11.927 Y-62.765 
X-11.927 Y-49.765 
X135.558 Y-49.765 
X135.558 Y-36.765 
X-11.927 Y-36.765 
X-11.927 Y-23.765 
X135.558 Y-23.765 
X135.558 Y-10.765 
X-11.927 Y-10.765 
X-11.927 Y2.234 
X135.558 Y2.234 
X135.558 Y10.794 
X-11.927 Y10.794 
X-11.927 Y2.234 
X135.558 Y2.234 
X135.558 Y10.794 
G00 Z55
X-11.927 Y-75.765
Z51.17
G01 Z46.68 F300
X135.558 Y-75.765 F800
X135.558 Y-62.765 
X-11.927 Y-62.765 
X-11.927 Y-49.765 
X135.558 Y-49.765 
X135.558 Y-36.765 
X-11.927 Y-36.765 
X-11.927 Y-23.765 
X135.558 Y-23.765 
X135.558 Y-10.765 
X-11.927 Y-10.765 
X-11.927 Y2.234 
X135.558 Y2.234 
X135.558 Y10.794 
X-11.927 Y10.794 
X-11.927 Y2.234 
X135.558 Y2.234 
X135.558 Y10.794 
G00 Z55
X-11.927 Y-75.765
Z50.68
G01 Z46.19 F300
X135.558 Y-75.765 F800
X135.558 Y-62.765 
X-11.927 Y-62.765 
X-11.927 Y-49.765 
X135.558 Y-49.765 
X135.558 Y-36.765 
X-11.927 Y-36.765 
X-11.927 Y-23.765 
X135.558 Y-23.765 
X135.558 Y-10.765 
X-11.927 Y-10.765 
X-11.927 Y2.234 
X135.558 Y2.234 
X135.558 Y10.794 
X-11.927 Y10.794 
X-11.927 Y2.234 
X135.558 Y2.234 
X135.558 Y10.794 
G00 Z55
X-11.927 Y-75.765
Z50.19
G01 Z45.7 F300
X135.558 Y-75.765 F800
X135.558 Y-62.765 
X-11.927 Y-62.765 
X-11.927 Y-49.765 
X135.558 Y-49.765 
X135.558 Y-36.765 
X-11.927 Y-36.765 
X-11.927 Y-23.765 
X135.558 Y-23.765 
X135.558 Y-10.765 
X-11.927 Y-10.765 
X-11.927 Y2.234 
X135.558 Y2.234 
X135.558 Y10.794 
X-11.927 Y10.794 
X-11.927 Y2.234 
X135.558 Y2.234 
X135.558 Y10.794 
G00 Z55
X-11.927 Y-75.765
Z49.7
G01 Z45.21 F300
X135.558 Y-75.765 F800
X135.558 Y-62.765 
X-11.927 Y-62.765 
X-11.927 Y-49.765 
X135.558 Y-49.765 
X135.558 Y-36.765 
X-11.927 Y-36.765 
X-11.927 Y-23.765 
X135.558 Y-23.765 
X135.558 Y-10.765 
X-11.927 Y-10.765 
X-11.927 Y2.234 
X135.558 Y2.234 
X135.558 Y10.794 
X-11.927 Y10.794 
X-11.927 Y2.234 
X135.558 Y2.234 
X135.558 Y10.794 
G00 Z55
X-11.927 Y-75.765
Z49.21
G01 Z44.72 F300
X135.558 Y-75.765 F800
X135.558 Y-62.765 
X-11.927 Y-62.765 
X-11.927 Y-49.765 
X135.558 Y-49.765 
X135.558 Y-36.765 
X-11.927 Y-36.765 
X-11.927 Y-23.765 
X135.558 Y-23.765 
X135.558 Y-10.765 
X-11.927 Y-10.765 
X-11.927 Y2.234 
X135.558 Y2.234 
X135.558 Y10.794 
X-11.927 Y10.794 
X-11.927 Y2.234 
X135.558 Y2.234 
X135.558 Y10.794 
G00 Z55
X-11.927 Y-75.765
Z48.72
G01 Z44.23 F300
X135.558 Y-75.765 F800
X135.558 Y-62.765 
X-11.927 Y-62.765 
X-11.927 Y-49.765 
X135.558 Y-49.765 
X135.558 Y-36.765 
X-11.927 Y-36.765 
X-11.927 Y-23.765 
X135.558 Y-23.765 
X135.558 Y-10.765 
X-11.927 Y-10.765 
X-11.927 Y2.234 
X135.558 Y2.234 
X135.558 Y10.794 
X-11.927 Y10.794 
X-11.927 Y2.234 
X135.558 Y2.234 
X135.558 Y10.794 
G00 Z55
X-11.927 Y-75.765
Z48.23
G01 Z43.74 F300
X135.558 Y-75.765 F800
X135.558 Y-62.765 
X-11.927 Y-62.765 
X-11.927 Y-49.765 
X135.558 Y-49.765 
X135.558 Y-36.765 
X-11.927 Y-36.765 
X-11.927 Y-23.765 
X135.558 Y-23.765 
X135.558 Y-10.765 
X-11.927 Y-10.765 
X-11.927 Y2.234 
X135.558 Y2.234 
X135.558 Y10.794 
X-11.927 Y10.794 
X-11.927 Y2.234 
X135.558 Y2.234 
X135.558 Y10.794 
G00 Z55
X-11.927 Y-75.765
Z47.74
G01 Z43.25 F300
X135.558 Y-75.765 F800
X135.558 Y-62.765 
X-11.927 Y-62.765 
X-11.927 Y-49.765 
X135.558 Y-49.765 
X135.558 Y-36.765 
X-11.927 Y-36.765 
X-11.927 Y-23.765 
X135.558 Y-23.765 
X135.558 Y-10.765 
X-11.927 Y-10.765 
X-11.927 Y2.234 
X135.558 Y2.234 
X135.558 Y10.794 
X-11.927 Y10.794 
X-11.927 Y2.234 
X135.558 Y2.234 
X135.558 Y10.794 
G00 Z55
X-11.927 Y-75.765
Z47.25
G01 Z42.76 F300
X135.558 Y-75.765 F800
X135.558 Y-62.765 
X-11.927 Y-62.765 
X-11.927 Y-49.765 
X135.558 Y-49.765 
X135.558 Y-36.765 
X-11.927 Y-36.765 
X-11.927 Y-23.765 
X135.558 Y-23.765 
X135.558 Y-10.765 
X-11.927 Y-10.765 
X-11.927 Y2.234 
X135.558 Y2.234 
X135.558 Y10.794 
X-11.927 Y10.794 
X-11.927 Y2.234 
X135.558 Y2.234 
X135.558 Y10.794 
G00 Z55
X-11.927 Y-75.765
Z46.76
G01 Z42.27 F300
X135.558 Y-75.765 F800
X135.558 Y-62.765 
X-11.927 Y-62.765 
X-11.927 Y-49.765 
X135.558 Y-49.765 
X135.558 Y-36.765 
X-11.927 Y-36.765 
X-11.927 Y-23.765 
X135.558 Y-23.765 
X135.558 Y-10.765 
X-11.927 Y-10.765 
X-11.927 Y2.234 
X135.558 Y2.234 
X135.558 Y10.794 
X-11.927 Y10.794 
X-11.927 Y2.234 
X135.558 Y2.234 
X135.558 Y10.794 
G00 Z55
X-11.927 Y-75.765
Z46.27
G01 Z41.78 F300
X135.558 Y-75.765 F800
X135.558 Y-62.765 
X-11.927 Y-62.765 
X-11.927 Y-49.765 
X135.558 Y-49.765 
X135.558 Y-36.765 
X-11.927 Y-36.765 
X-11.927 Y-23.765 
X135.558 Y-23.765 
X135.558 Y-10.765 
X-11.927 Y-10.765 
X-11.927 Y2.234 
X135.558 Y2.234 
X135.558 Y10.794 
X-11.927 Y10.794 
X-11.927 Y2.234 
X135.558 Y2.234 
X135.558 Y10.794 
G00 Z55
X-11.927 Y-75.765
Z45.78
G01 Z41.29 F300
X135.558 Y-75.765 F800
X135.558 Y-62.765 
X-11.927 Y-62.765 
X-11.927 Y-49.765 
X135.558 Y-49.765 
X135.558 Y-36.765 
X-11.927 Y-36.765 
X-11.927 Y-23.765 
X135.558 Y-23.765 
X135.558 Y-10.765 
X-11.927 Y-10.765 
X-11.927 Y2.234 
X135.558 Y2.234 
X135.558 Y10.794 
X-11.927 Y10.794 
X-11.927 Y2.234 
X135.558 Y2.234 
X135.558 Y10.794 
G00 Z55
X-11.927 Y-75.765
Z45.29
G01 Z40.8 F300
X135.558 Y-75.765 F800
X135.558 Y-62.765 
X-11.927 Y-62.765 
X-11.927 Y-49.765 
X135.558 Y-49.765 
X135.558 Y-36.765 
X-11.927 Y-36.765 
X-11.927 Y-23.765 
X135.558 Y-23.765 
X135.558 Y-10.765 
X-11.927 Y-10.765 
X-11.927 Y2.234 
X135.558 Y2.234 
X135.558 Y10.794 
X-11.927 Y10.794 
X-11.927 Y2.234 
X135.558 Y2.234 
X135.558 Y10.794 
G00 Z55
X-11.927 Y-75.765
Z44.8
G01 Z40.31 F300
X135.558 Y-75.765 F800
X135.558 Y-62.765 
X-11.927 Y-62.765 
X-11.927 Y-49.765 
X135.558 Y-49.765 
X135.558 Y-36.765 
X-11.927 Y-36.765 
X-11.927 Y-23.765 
X135.558 Y-23.765 
X135.558 Y-10.765 
X-11.927 Y-10.765 
X-11.927 Y2.234 
X135.558 Y2.234 
X135.558 Y10.794 
X-11.927 Y10.794 
X-11.927 Y2.234 
X135.558 Y2.234 
X135.558 Y10.794 
G00 Z55
X-11.927 Y-75.765
Z44.31
G01 Z39.82 F300
X135.558 Y-75.765 F800
X135.558 Y-62.765 
X-11.927 Y-62.765 
X-11.927 Y-49.765 
X135.558 Y-49.765 
X135.558 Y-36.765 
X-11.927 Y-36.765 
X-11.927 Y-23.765 
X135.558 Y-23.765 
X135.558 Y-10.765 
X-11.927 Y-10.765 
X-11.927 Y2.234 
X135.558 Y2.234 
X135.558 Y10.794 
X-11.927 Y10.794 
X-11.927 Y2.234 
X135.558 Y2.234 
X135.558 Y10.794 
G00 Z55
X-11.927 Y-75.765
Z43.82
G01 Z39.33 F300
X135.558 Y-75.765 F800
X135.558 Y-62.765 
X-11.927 Y-62.765 
X-11.927 Y-49.765 
X135.558 Y-49.765 
X135.558 Y-36.765 
X-11.927 Y-36.765 
X-11.927 Y-23.765 
X135.558 Y-23.765 
X135.558 Y-10.765 
X-11.927 Y-10.765 
X-11.927 Y2.234 
X135.558 Y2.234 
X135.558 Y10.794 
X-11.927 Y10.794 
X-11.927 Y2.234 
X135.558 Y2.234 
X135.558 Y10.794 
G00 Z55
X-11.927 Y-75.765
Z43.33
G01 Z38.84 F300
X135.558 Y-75.765 F800
X135.558 Y-62.765 
X-11.927 Y-62.765 
X-11.927 Y-49.765 
X135.558 Y-49.765 
X135.558 Y-36.765 
X-11.927 Y-36.765 
X-11.927 Y-23.765 
X135.558 Y-23.765 
X135.558 Y-10.765 
X-11.927 Y-10.765 
X-11.927 Y2.234 
X135.558 Y2.234 
X135.558 Y10.794 
X-11.927 Y10.794 
X-11.927 Y2.234 
X135.558 Y2.234 
X135.558 Y10.794 
G00 Z55
X-11.927 Y-75.765
Z42.84
G01 Z38.35 F300
X135.558 Y-75.765 F800
X135.558 Y-62.765 
X-11.927 Y-62.765 
X-11.927 Y-49.765 
X135.558 Y-49.765 
X135.558 Y-36.765 
X-11.927 Y-36.765 
X-11.927 Y-23.765 
X135.558 Y-23.765 
X135.558 Y-10.765 
X-11.927 Y-10.765 
X-11.927 Y2.234 
X135.558 Y2.234 
X135.558 Y10.794 
X-11.927 Y10.794 
X-11.927 Y2.234 
X135.558 Y2.234 
X135.558 Y10.794 
G00 Z55
(bk- Backside facing finishing)
X-11.927 Y-75.765 S1900 M03
Z42.35
G01 Z38.1 F100
X135.558 Y-75.765 F600
X135.558 Y-68.665 
X-11.927 Y-68.665 
X-11.927 Y-61.565 
X135.558 Y-61.565 
X135.558 Y-54.465 
X-11.927 Y-54.465 
X-11.927 Y-47.365 
X135.558 Y-47.365 
X135.558 Y-40.265 
X-11.927 Y-40.265 
X-11.927 Y-33.165 
X135.558 Y-33.165 
X135.558 Y-26.064 
X-11.927 Y-26.064 
X-11.927 Y-18.964 
X135.558 Y-18.964 
X135.558 Y-11.864 
X-11.927 Y-11.864 
X-11.927 Y-4.764 
X135.558 Y-4.764 
X135.558 Y2.335 
X-11.927 Y2.335 
X-11.927 Y9.435 
X135.558 Y9.435 
X135.558 Y10.794 
X-11.927 Y10.794 
X-11.927 Y9.435 
X135.558 Y9.435 
X135.558 Y10.794 
G00 Z55
(bk- Backside pocket roughing)
X-12.356 Y-67.756 S1900 M03
Z42.1
G01 Z37.606 F100
X131.356 Y-67.756 F800
X131.356 Y-57.756 
X-12.356 Y-57.756 
X-12.356 Y-48.243 
X131.356 Y-48.243 
G00 Z55
X-12.356 Y-67.756
Z41.606
G01 Z37.112 F100
X131.356 Y-67.756 F800
X131.356 Y-57.756 
X-12.356 Y-57.756 
X-12.356 Y-48.243 
X131.356 Y-48.243 
G00 Z55
X-12.356 Y-67.756
Z41.112
G01 Z36.618 F100
X131.356 Y-67.756 F800
X131.356 Y-57.756 
X-12.356 Y-57.756 
X-12.356 Y-48.243 
X131.356 Y-48.243 
G00 Z55
X-12.356 Y-67.756
Z40.618
G01 Z36.125 F100
X131.356 Y-67.756 F800
X131.356 Y-57.756 
X-12.356 Y-57.756 
X-12.356 Y-48.243 
X131.356 Y-48.243 
G00 Z55
X-12.356 Y-67.756
Z40.125
G01 Z35.631 F100
X131.356 Y-67.756 F800
X131.356 Y-57.756 
X-12.356 Y-57.756 
X-12.356 Y-48.243 
X131.356 Y-48.243 
G00 Z55
X-12.356 Y-67.756
Z39.631
G01 Z35.137 F100
X131.356 Y-67.756 F800
X131.356 Y-57.756 
X-12.356 Y-57.756 
X-12.356 Y-48.243 
X131.356 Y-48.243 
G00 Z55
X-12.356 Y-67.756
Z39.137
G01 Z34.643 F100
X131.356 Y-67.756 F800
X131.356 Y-57.756 
X-12.356 Y-57.756 
X-12.356 Y-48.243 
X131.356 Y-48.243 
G00 Z55
X-12.356 Y-67.756
Z38.643
G01 Z34.15 F100
X131.356 Y-67.756 F800
X131.356 Y-57.756 
X-12.356 Y-57.756 
X-12.356 Y-48.243 
X131.356 Y-48.243 
G00 Z55
X-12.356 Y-67.756
Z38.15
G01 Z33.656 F100
X131.356 Y-67.756 F800
X131.356 Y-57.756 
X-12.356 Y-57.756 
X-12.356 Y-48.243 
X131.356 Y-48.243 
G00 Z55
X-12.356 Y-67.756
Z37.656
G01 Z33.162 F100
X131.356 Y-67.756 F800
X131.356 Y-57.756 
X-12.356 Y-57.756 
X-12.356 Y-48.243 
X131.356 Y-48.243 
G00 Z55
X-12.356 Y-67.756
Z37.162
G01 Z32.668 F100
X131.356 Y-67.756 F800
X131.356 Y-57.756 
X-12.356 Y-57.756 
X-12.356 Y-48.243 
X131.356 Y-48.243 
G00 Z55
X-12.356 Y-67.756
Z36.668
G01 Z32.175 F100
X131.356 Y-67.756 F800
X131.356 Y-57.756 
X-12.356 Y-57.756 
X-12.356 Y-48.243 
X131.356 Y-48.243 
G00 Z55
X-12.356 Y-67.756
Z36.175
G01 Z31.681 F100
X131.356 Y-67.756 F800
X131.356 Y-57.756 
X-12.356 Y-57.756 
X-12.356 Y-48.243 
X131.356 Y-48.243 
G00 Z55
X-12.356 Y-67.756
Z35.681
G01 Z31.187 F100
X131.356 Y-67.756 F800
X131.356 Y-57.756 
X-12.356 Y-57.756 
X-12.356 Y-48.243 
X131.356 Y-48.243 
G00 Z55
X-12.356 Y-67.756
Z35.187
G01 Z30.693 F100
X131.356 Y-67.756 F800
X131.356 Y-57.756 
X-12.356 Y-57.756 
X-12.356 Y-48.243 
X131.356 Y-48.243 
G00 Z55
X-12.356 Y-67.756
Z34.693
G01 Z30.2 F100
X131.356 Y-67.756 F800
X131.356 Y-57.756 
X-12.356 Y-57.756 
X-12.356 Y-48.243 
X131.356 Y-48.243 
G00 Z55
X-12.356 Y-67.756
Z34.2
G01 Z29.706 F100
X131.356 Y-67.756 F800
X131.356 Y-57.756 
X-12.356 Y-57.756 
X-12.356 Y-48.243 
X131.356 Y-48.243 
G00 Z55
X-12.356 Y-67.756
Z33.706
G01 Z29.212 F100
X131.356 Y-67.756 F800
X131.356 Y-57.756 
X-12.356 Y-57.756 
X-12.356 Y-48.243 
X131.356 Y-48.243 
G00 Z55
X-12.356 Y-67.756
Z33.212
G01 Z28.718 F100
X131.356 Y-67.756 F800
X131.356 Y-57.756 
X-12.356 Y-57.756 
X-12.356 Y-48.243 
X131.356 Y-48.243 
G00 Z55
X-12.356 Y-67.756
Z32.718
G01 Z28.225 F100
X131.356 Y-67.756 F800
X131.356 Y-57.756 
X-12.356 Y-57.756 
X-12.356 Y-48.243 
X131.356 Y-48.243 
G00 Z55
X-12.356 Y-67.756
Z32.225
G01 Z27.731 F100
X131.356 Y-67.756 F800
X131.356 Y-57.756 
X-12.356 Y-57.756 
X-12.356 Y-48.243 
X131.356 Y-48.243 
G00 Z55
X-12.356 Y-67.756
Z31.731
G01 Z27.237 F100
X131.356 Y-67.756 F800
X131.356 Y-57.756 
X-12.356 Y-57.756 
X-12.356 Y-48.243 
X131.356 Y-48.243 
G00 Z55
X-12.356 Y-67.756
Z31.237
G01 Z26.743 F100
X131.356 Y-67.756 F800
X131.356 Y-57.756 
X-12.356 Y-57.756 
X-12.356 Y-48.243 
X131.356 Y-48.243 
G00 Z55
X-12.356 Y-67.756
Z30.743
G01 Z26.25 F100
X131.356 Y-67.756 F800
X131.356 Y-57.756 
X-12.356 Y-57.756 
X-12.356 Y-48.243 
X131.356 Y-48.243 
G00 Z55
X-12.356 Y-67.756
Z30.25
G01 Z25.756 F100
X131.356 Y-67.756 F800
X131.356 Y-57.756 
X-12.356 Y-57.756 
X-12.356 Y-48.243 
X131.356 Y-48.243 
G00 Z55
X-12.356 Y-67.756
Z29.756
G01 Z25.262 F100
X131.356 Y-67.756 F800
X131.356 Y-57.756 
X-12.356 Y-57.756 
X-12.356 Y-48.243 
X131.356 Y-48.243 
G00 Z55
X-12.356 Y-67.756
Z29.262
G01 Z24.768 F100
X131.356 Y-67.756 F800
X131.356 Y-57.756 
X-12.356 Y-57.756 
X-12.356 Y-48.243 
X131.356 Y-48.243 
G00 Z55
X-12.356 Y-67.756
Z28.768
G01 Z24.275 F100
X131.356 Y-67.756 F800
X131.356 Y-57.756 
X-12.356 Y-57.756 
X-12.356 Y-48.243 
X131.356 Y-48.243 
G00 Z55
X-12.356 Y-67.756
Z28.275
G01 Z23.781 F100
X131.356 Y-67.756 F800
X131.356 Y-57.756 
X-12.356 Y-57.756 
X-12.356 Y-48.243 
X131.356 Y-48.243 
G00 Z55
X-12.356 Y-67.756
Z27.781
G01 Z23.287 F100
X131.356 Y-67.756 F800
X131.356 Y-57.756 
X-12.356 Y-57.756 
X-12.356 Y-48.243 
X131.356 Y-48.243 
G00 Z55
X-12.356 Y-67.756
Z27.287
G01 Z22.793 F100
X131.356 Y-67.756 F800
X131.356 Y-57.756 
X-12.356 Y-57.756 
X-12.356 Y-48.243 
X131.356 Y-48.243 
G00 Z55
X-12.356 Y-67.756
Z26.793
G01 Z22.3 F100
X131.356 Y-67.756 F800
X131.356 Y-57.756 
X-12.356 Y-57.756 
X-12.356 Y-48.243 
X131.356 Y-48.243 
G00 Z55
X-12.356 Y-67.756
Z26.3
G01 Z21.806 F100
X131.356 Y-67.756 F800
X131.356 Y-57.756 
X-12.356 Y-57.756 
X-12.356 Y-48.243 
X131.356 Y-48.243 
G00 Z55
X-12.356 Y-67.756
Z25.806
G01 Z21.312 F100
X131.356 Y-67.756 F800
X131.356 Y-57.756 
X-12.356 Y-57.756 
X-12.356 Y-48.243 
X131.356 Y-48.243 
G00 Z55
X-12.356 Y-67.756
Z25.312
G01 Z20.818 F100
X131.356 Y-67.756 F800
X131.356 Y-57.756 
X-12.356 Y-57.756 
X-12.356 Y-48.243 
X131.356 Y-48.243 
G00 Z55
X-12.356 Y-67.756
Z24.818
G01 Z20.325 F100
X131.356 Y-67.756 F800
X131.356 Y-57.756 
X-12.356 Y-57.756 
X-12.356 Y-48.243 
X131.356 Y-48.243 
G00 Z55
X-12.356 Y-67.756
Z24.325
G01 Z19.831 F100
X131.356 Y-67.756 F800
X131.356 Y-57.756 
X-12.356 Y-57.756 
X-12.356 Y-48.243 
X131.356 Y-48.243 
G00 Z55
X-12.356 Y-67.756
Z23.831
G01 Z19.337 F100
X131.356 Y-67.756 F800
X131.356 Y-57.756 
X-12.356 Y-57.756 
X-12.356 Y-48.243 
X131.356 Y-48.243 
G00 Z55
X-12.356 Y-67.756
Z23.337
G01 Z18.843 F100
X131.356 Y-67.756 F800
X131.356 Y-57.756 
X-12.356 Y-57.756 
X-12.356 Y-48.243 
X131.356 Y-48.243 
G00 Z55
X-12.356 Y-67.756
Z22.843
G01 Z18.35 F100
X131.356 Y-67.756 F800
X131.356 Y-57.756 
X-12.356 Y-57.756 
X-12.356 Y-48.243 
X131.356 Y-48.243 
G00 Z55
(bk- Backside pocket finishing)
X-12.356 Y-67.756 S1900 M03
Z22.35
G01 Z18.1 F100
X131.356 Y-67.756 F600
X131.356 Y-61.256 
X-12.356 Y-61.256 
X-12.356 Y-54.756 
X131.356 Y-54.756 
X131.356 Y-48.256 
X-12.356 Y-48.256 
X-12.356 Y-48.243 
X131.356 Y-48.243 
G00 Z55
T0 M06 M02
